X: 138
T:Paddy's Return
M:6/8
L:1/8
F:http://blackrosetheband.googlepages.com/ABCTUNES.ABC May 2009
C:Willy Coleman
S:Kevin Burke & Micheal O' Domhnaill
R:Jig
K:D
d2 B|:"D"AFD DFA|"G"B2d BAF|"D"ABA FED|"G"FEE "A"EFG| "D"AFD DFA|"G"B2d BAF|"A"ABA FFE|1 "D"FDD d2B:|2 "D"FDD D2e|
|:"Bm"fdd dcd|fdd d2e|fef def|"G"gbg e2g| "Bm"fed B2d|A2d F2G|"A"ABA F2E|1 "D"FDD Dze:|2"D"FDD d2B||

